X: 2042
T: Lady Baird's    Strathspey
%R: strathspey
B: Niel Gow & Sons "A Second Collection of Strathspey Reels, etc." v.2 p.4 #2
Z: 2022 John Chambers <jc:trillian.mit.edu>
M: C
L: 1/8
K: A
% - - - - - - - - - -
V: 1 staves=2
a | e<c-Tc>B A>BAE | F>AE>A F>AEa | e<c-Tc>B {B}A>GAB | c<eTe>^d e3 :|
|: =g | f<dTd>B Tc>dec | d<BTB>G A>BcE | F>AE>A F>AE>d | {d}cB/A/ {c}BA/G/ A2A :|
% - - - - - - - - - -
% Voice 2 preserves the staff layout in the book.
V: 2 clef=bass middle=d
z | a2A2 A2c2 | d2c2 d2A2 | a2A2 A2A2 | a2b2 e3 :||: z |
d2^g2 a2a2 | b2e2 f2c2 | d2c2 d2A2 | e2E2 A2A :|


